X:1
T:Title
%%score { ( 1 3 ) | 2 }
L:1/8
Q:1/4=92
M:6/8
K:F
V:1 treble nm="Grand Piano"
V:3 treble 
V:2 bass 
V:1
 [DF][Fd][Fd] [Fd][_Ec][DB] | BAG A3 | A_ee G3 | [DF][Fd][Fd] [DB]3 | [DF][Fd][Fd] [Fd][_Ec][DB] | %5
w: Chas.~H.~Gabriel * * * * *|||||
 BAG A3 | A_ee GAF | [DB]6 | [FA][GB][_A=B] [=Ac][Ad][FA] | [Ac][GB][^FA] [GB]3 | %10
w: |||||
 [EG][FA][GB] [ce][Bd][_EBc] | [FBd][FAc][CGB] [CFA]3 | [CFA][CGB][C_A=B] [C=Ac][_Bd][Ac] | %13
w: |||
 [Ge][Fd][E^c] [Fd]3 | [Ed][EG][FA] [EB][EA][EG] | FFF F3 | .d6 | dcF c3 | .c6 | %19
w: ||||||
 [_Ec][DB][B,D] [DF]3 | [Fd][Fd][Fd] [Fd][E^c][Fd] |[M:7/8] [Ff][Af][_Af] [G_e]3 [Ge] | %22
w: |||
[M:3/4] dF GA Bc | [DB]6 |] %24
w: ||
V:2
 [B,,B,][B,,B,][B,,B,] [B,,B,][B,,B,][B,,B,] | [F,C_E][F,CE][F,CE] [F,CE]3 | %2
 [F,CF][F,A,F][F,A,F] [F,A,_E]3 | [B,,B,][B,,B,][B,,B,] [B,,B,]3 | %4
 [B,,B,][B,,B,][B,,B,] [B,,B,][B,,B,][B,,B,] | [F,C_E][F,CE][F,CE] [F,CE]3 | %6
 [F,CF][F,A,F][F,A,F] [F,A,_E][F,CE][F,A,E] | [B,,B,]6 | [F,C][F,C][F,C] [F,C][F,C][F,C] | %9
 [C,C][C,C][C,C] [C,C]3 | [C,C][C,C][C,C] [C,C][C,C]C, | F,F,F, F,3 | F,F,F, F,[F,C][F,C] | %13
 [B,,B,][B,,B,][B,,B,] [B,,B,]3 | [C,B,][C,B,][C,A,] [C,G,][C,C][C,B,] | %15
 [F,A,][F,A,C][F,B,D] [F,C_E]3 | [B,,B,][B,,B,][B,,B,] [B,,B,][B,,B,][B,,B,] | %17
 [F,B,F][F,A,_E][F,A,E] [F,A,E]3 | [F,A,_E][F,A,][F,A,] [F,A,][F,A,F][F,A,E] | %19
 [B,,B,][B,,B,][B,,F,] [B,,B,]3 | [B,,B,][B,,B,][B,,B,] [B,,B,][B,,B,][B,,B,] | %21
[M:7/8] [B,,D][C,C][D,B,] [_E,B,]3 [E,B,] |[M:3/4] [F,B,F][F,A,] [F,B,E][F,C_E] [F,B,D][F,A,E] | %23
 [B,,B,]6 |] %24
V:3
 x6 | x6 | x6 | x6 | x6 | x6 | x6 | x6 | x6 | x6 | x6 | x6 | x6 | x6 | x6 | x6 | FFF F[G_e][Fd] | %17
 x6 | z _EE Edc | x6 | x6 |[M:7/8] x7 |[M:3/4] x6 | x6 |] %24

